X: 25097
T: Maids Of Selma, The
R: jig
M: 6/8
K: Gmajor
|:G2E EDE|~G3 dee|d2B BAG|AcB AGF|
G2E EDE|~G3 g2 e|d2B BAG|1 ABA G2F:|2 ABA GBc||
|:dBd g3|d e2 edB|d2e g2a|b2 e edB|
GBd g3|dee edB|d2e g2a|b3 ~a3|
g2 g efg|~f3 dBd|e2B BAB|G2E EDE|
G2E EDE|G3 g2 e|d2 B BAG|1 ABA GBc:|2 ABA G3||

